icon-svg/amina-s.svg

<?xml version="1.0" encoding="UTF-8" standalone="no"?>
<svg
   width="24"
   height="24"
   viewBox="0 0 24 24"
   version="1.1"
   xmlns="http://www.w3.org/2000/svg"
   xmlns:svg="http://www.w3.org/2000/svg">
  <path
     style="fill:#44739e"
     d="M 9.7246094 2.3710938 C 9.1707428 2.3710938 8.7246094 2.817096 8.7246094 3.3710938 L 8.7246094 11.992188 L 15.324219 11.992188 L 15.324219 3.3710938 C 15.324219 2.817096 14.878085 2.3710937 14.324219 2.3710938 L 9.7246094 2.3710938 z M 14.140625 2.9570312 A 0.57406595 0.57420218 0 0 1 14.716797 3.53125 A 0.57406595 0.57420218 0 0 1 14.140625 4.1054688 A 0.57406595 0.57420218 0 0 1 13.566406 3.53125 A 0.57406595 0.57420218 0 0 1 14.140625 2.9570312 z M 8.7246094 12.289062 L 8.7246094 16.271484 C 8.7246094 16.825482 9.1707428 17.271484 9.7246094 17.271484 L 10.724609 17.271484 L 10.738281 17.271484 L 13.310547 17.271484 L 13.324219 17.271484 L 14.324219 17.271484 C 14.878085 17.271484 15.324219 16.825482 15.324219 16.271484 L 15.324219 12.289062 L 8.7246094 12.289062 z M 10.724609 17.572266 L 10.724609 18.791016 C 10.724609 19.123414 10.993852 19.390625 11.326172 19.390625 L 11.523438 19.390625 L 11.523438 21.628906 L 12.527344 21.628906 L 12.527344 19.390625 L 12.724609 19.390625 C 13.056929 19.390625 13.324219 19.123414 13.324219 18.791016 L 13.324219 17.572266 L 10.724609 17.572266 z "
   />
</svg>

<svg xmlns="http://www.w3.org/2000/svg" viewBox="0 0 24 24"><path fill="#44739e" d="M9.7246 2.371a.998.998 0 0 0-1 1v8.6212h6.5996V3.371c0-.554-.4461-1-1-1zm4.416.586a.574.5742 0 0 1 .5762.5743.574.5742 0 0 1-.5762.5742.574.5742 0 0 1-.5742-.5743.574.5742 0 0 1 .5742-.5742m-5.416 9.332v3.9825c0 .554.4461 1 1 1h4.5996c.5539 0 1-.446 1-1V12.289zm2 5.2833v1.2187c0 .3324.2693.5996.6016.5996h.1972v2.2383h1.004v-2.2383h.1972a.598.598 0 0 0 .5996-.5996v-1.2187z"/></svg>
